src/resources/assets/radio-checked.svg

<svg width="16" height="16" xmlns="http://www.w3.org/2000/svg">
    <path d="m 8,1.5 c 3.589851,0 6.5,2.9101491 6.5,6.5 0,3.589851 -2.910149,6.5 -6.5,6.5 C 4.4101491,14.5 1.5,11.589851 1.5,8 1.5,4.4101491 4.4101491,1.5 8,1.5 Z M 8,2.4748488 C 4.9485433,2.4748488 2.4748489,4.9485433 2.4748489,8 c 0,3.051457 2.4736944,5.525152 5.5251511,5.525152 3.051456,0 5.525151,-2.473695 5.525151,-5.525152 C 13.525151,4.9485433 11.051456,2.4748488 8,2.4748488 Z M 7.99777,4.0995969 c 2.152899,0 3.898169,1.74527 3.898169,3.8981697 0,2.1529004 -1.74527,3.8981704 -3.898169,3.8981704 -2.1528996,0 -3.8981697,-1.74527 -3.8981697,-3.8981704 0,-2.1528997 1.7452701,-3.8981697 3.8981697,-3.8981697 z"
          fill="#ddd" stroke-width=".65"/>
</svg>

<?xml version="1.0" encoding="UTF-8"?>
<svg xmlns="http://www.w3.org/2000/svg" xmlns:xlink="http://www.w3.org/1999/xlink" width="16px" height="16px" viewBox="0 0 16 16" version="1.1">
<g id="surface1">
<path style=" stroke:none;fill-rule:nonzero;fill:rgb(86.666667%,86.666667%,86.666667%);fill-opacity:1;" d="M 8 1.5 C 11.589844 1.5 14.5 4.410156 14.5 8 C 14.5 11.589844 11.589844 14.5 8 14.5 C 4.410156 14.5 1.5 11.589844 1.5 8 C 1.5 4.410156 4.410156 1.5 8 1.5 Z M 8 2.476562 C 4.949219 2.476562 2.476562 4.949219 2.476562 8 C 2.476562 11.050781 4.949219 13.523438 8 13.523438 C 11.050781 13.523438 13.523438 11.050781 13.523438 8 C 13.523438 4.949219 11.050781 2.476562 8 2.476562 Z M 7.996094 4.097656 C 10.152344 4.097656 11.894531 5.84375 11.894531 7.996094 C 11.894531 10.152344 10.152344 11.894531 7.996094 11.894531 C 5.84375 11.894531 4.097656 10.152344 4.097656 7.996094 C 4.097656 5.84375 5.84375 4.097656 7.996094 4.097656 Z M 7.996094 4.097656 "/>
</g>
</svg>
